svgs/free_download_manager.svg

<svg width="192" height="192" viewBox="0 0 50.8 50.8" xml:space="preserve" xmlns="http://www.w3.org/2000/svg"><path style="fill:none;stroke:#000;stroke-width:3.175;stroke-linecap:round;stroke-linejoin:round;stroke-dasharray:none;stroke-opacity:1" d="M38.801 30.03 29.37 36.5v-3.692H18.785v5.557c0 3.307 3.307 6.614 6.615 6.614h18.52V24.871c0-3.308-3.306-6.615-6.614-6.615h-18.52v9.26h10.583v-3.942L38.8 30.03"/><path style="fill:none;stroke:#000;stroke-width:3.175;stroke-linecap:round;stroke-linejoin:round;stroke-dasharray:none;stroke-opacity:1" d="M33.614 11.113H12.171V34.13"/><path style="fill:none;stroke:#000;stroke-width:3.175;stroke-linecap:round;stroke-linejoin:round;stroke-dasharray:none;stroke-opacity:1" d="M6.88 5.82v21.697c0 1.299.699 2.022 2.02 3.344l11.248 11.247M6.88 5.82l20.527.092c1.3.005 2.094.632 3.344 2.02l11.582 12.864"/></svg>

<svg id="vector" xmlns="http://www.w3.org/2000/svg" width="192" height="192" viewBox="0 0 50.8 50.8"><path fill="#00000000" d="M38.801,30.03 L29.369,36.499V32.808H18.785v5.556c0,3.307 3.307,6.615 6.615,6.615H43.921V24.871c0,-3.307 -3.307,-6.615 -6.615,-6.615H18.785v9.26H29.369v-3.942l9.432,6.456" stroke-linejoin="round" stroke-width="3.175" stroke="#000000" stroke-linecap="round" id="path_0"/><path fill="#00000000" d="M33.614,11.113H12.171v23.019" stroke-linejoin="round" stroke-width="3.175" stroke="#000000" stroke-linecap="round" id="path_1"/><path fill="#00000000" d="m6.879,5.821v21.696c0,1.299 0.699,2.022 2.021,3.344L20.148,42.108" stroke-linejoin="round" stroke-width="3.175" stroke="#000000" stroke-linecap="round" id="path_2"/><path fill="#00000000" d="M6.879,5.821 L27.407,5.912c1.299,0.006 2.093,0.632 3.344,2.021l11.582,12.863" stroke-linejoin="round" stroke-width="3.175" stroke="#000000" stroke-linecap="round" id="path_3"/></svg>
